src/img/icons/clock.svg

<svg width="32" height="32" viewBox="0 0 32 32" fill="none" xmlns="http://www.w3.org/2000/svg">
<path d="M17.0263 15.5844V10.1842C17.0263 9.89345 16.9279 9.64964 16.7311 9.45282C16.5343 9.25622 16.2904 9.15793 15.9997 9.15793C15.7086 9.15793 15.4649 9.25622 15.2686 9.45282C15.072 9.64964 14.9737 9.89345 14.9737 10.1842V15.9001C14.9737 16.0612 15.0036 16.2172 15.0633 16.3681C15.1228 16.5191 15.2167 16.6587 15.3449 16.7869L20.0317 21.4737C20.221 21.6632 20.4591 21.7602 20.746 21.7645C21.0329 21.7688 21.2755 21.6719 21.4737 21.4737C21.6719 21.2755 21.771 21.0351 21.771 20.7526C21.771 20.4702 21.6719 20.2299 21.4737 20.0317L17.0263 15.5844ZM16.0024 29C14.2043 29 12.5142 28.6588 10.9321 27.9765C9.34993 27.2941 7.97375 26.368 6.80353 25.1982C5.6333 24.0284 4.70676 22.6528 4.02392 21.0714C3.34131 19.49 3 17.8003 3 16.0024C3 14.2043 3.34119 12.5142 4.02358 10.9321C4.70596 9.34996 5.63204 7.97378 6.80182 6.80356C7.97159 5.63333 9.34719 4.70679 10.9286 4.02395C12.5101 3.34134 14.1997 3.00003 15.9976 3.00003C17.7957 3.00003 19.4858 3.34122 21.0679 4.02361C22.6501 4.70599 24.0262 5.63207 25.1965 6.80185C26.3667 7.97162 27.2932 9.34722 27.9761 10.9287C28.6587 12.5101 29 14.1998 29 15.9976C29 17.7957 28.6588 19.4859 27.9764 21.068C27.294 22.6501 26.368 24.0263 25.1982 25.1965C24.0284 26.3667 22.6528 27.2933 21.0714 27.9761C19.4899 28.6587 17.8003 29 16.0024 29ZM16 26.9474C19.0333 26.9474 21.6162 25.8812 23.7487 23.7487C25.8811 21.6163 26.9474 19.0334 26.9474 16C26.9474 12.9667 25.8811 10.3838 23.7487 8.25135C21.6162 6.11889 19.0333 5.05266 16 5.05266C12.9667 5.05266 10.3838 6.11889 8.25132 8.25135C6.11886 10.3838 5.05263 12.9667 5.05263 16C5.05263 19.0334 6.11886 21.6163 8.25132 23.7487C10.3838 25.8812 12.9667 26.9474 16 26.9474Z" fill="#131212"/>
</svg>

<svg xmlns="http://www.w3.org/2000/svg" viewBox="0 0 32 32">
  <path fill="currentColor" d="M17.026 15.584v-5.4a.993.993 0 0 0-.295-.731.994.994 0 0 0-.731-.295.992.992 0 0 0-.731.295.994.994 0 0 0-.295.731V15.9a1.23 1.23 0 0 0 .371.887l4.687 4.687a.99.99 0 0 0 .714.29.968.968 0 0 0 .728-.29.982.982 0 0 0 .297-.721c0-.283-.1-.523-.297-.721l-4.448-4.448ZM16.002 29c-1.798 0-3.488-.341-5.07-1.023a13.13 13.13 0 0 1-4.128-2.779 13.13 13.13 0 0 1-2.78-4.127C3.34 19.49 3 17.801 3 16.002c0-1.798.341-3.488 1.024-5.07a13.13 13.13 0 0 1 2.778-4.128 13.13 13.13 0 0 1 4.127-2.78C12.51 3.341 14.199 3 15.998 3c1.798 0 3.488.341 5.07 1.024a13.13 13.13 0 0 1 4.128 2.778 13.13 13.13 0 0 1 2.78 4.127C28.66 12.51 29 14.199 29 15.998c0 1.798-.341 3.488-1.024 5.07a13.13 13.13 0 0 1-2.778 4.128 13.13 13.13 0 0 1-4.127 2.78C19.49 28.66 17.801 29 16.002 29ZM16 26.947c3.033 0 5.616-1.066 7.749-3.198 2.132-2.133 3.198-4.716 3.198-7.749 0-3.033-1.066-5.616-3.198-7.749C21.616 6.12 19.033 5.053 16 5.053c-3.033 0-5.616 1.066-7.749 3.198C6.12 10.384 5.053 12.967 5.053 16c0 3.033 1.066 5.616 3.198 7.749 2.133 2.132 4.716 3.198 7.749 3.198Z"/>
</svg>
